-----BEGIN PGP PRIVATE KEY BLOCK-----

lH0GanZUNhsAAAAgDqF+hsYXPmgT4nem4XBLRS/Pl9jfUpo1LKyN9Arisjf+HQcL
Awhdg8zc/LWfR2ChWp838PI5rc+N53Z1/DYwgcApPYPxDOryQ3gezwvgp1eAUhfM
pAWzTX5CxMhKAUKYH7P2i/uleUUzBiccXTBhjTtE9cK4Bh8bCgAAAEkioQYYF9ZC
pGO5TFw/QgUlnu04k5rJq3YvO1PC9NCBLmm4EwWCanZUNgIeCQYVDgwKCQgFFgAB
AgMECwkIBwcnCQIIAgcCApsBAAAAABNOIEXQlquCNHEFUMRUvNiqTqowFPBnUSVN
tHWd5iiPpRY/5DYgiSUcVAi/RA7u5iq9jnuzCRMHEnYT/slJPyPQn1GFB+5DWkxX
Bb38a6uHDrlO4lOsRCzWBtAs37V5LMBfCLQmUGFzc1BvbnkgVjYgRml4dHVyZSA8
djZAcGFzc3BvbnkudGVzdD7CmAYTGwoAAAApIqEGGBfWQqRjuUxcP0IFJZ7tOJOa
yat2LztTwvTQgS5puBMFgmp2VDYAAAAAG3AgRm3QItsiL6y5MxllZQckLooPmayJ
EVAhkwkTnuxnny/9CvxKkXaOMmXdi9A6tSRgdHEhQagYGXAGXA9otHVWGfBvJP4t
sUIczyGqiILLd9Tj77+2AzFeGYVGYx+DfgsPnH0GanZUNhsAAAAgFkYRsfmefw9i
ZltXZR0zrChHkHyG6UsXpVlIIPGEKw/+HQcLAwjY7Mj7oszH/2BNnavWxD5fE2xU
mDupMTFgUzPzjnoAYTSsYjR32jIQv8vzuwQDe0VgLfeP63FSCuEjwp7ucYZMvUPF
je5R4ku6pso7E8LAdQYYGwoAAADGIqEGGBfWQqRjuUxcP0IFJZ7tOJOayat2LztT
wvTQgS5puBMFgmp2VDYCmwKZoAYZGwoAAAApIqEGbW7rt+Tp1SBiysdJ1DTr7h07
Iagj23OJGBfCEVkzsFMFgmp2VDYAAAAA5vggfIj4aSGVf646NodZK6UnAvQXsS7X
qxSMHAUC8vYhoT5OCE0l7pcQjLrypdCiHDcvSiK6Unp2jE/E5HGSo2NG9z7E0Q5a
843DUQpgb5hl04QPrgXlYSPyQhbDjqz4SXkNAAAAADmUIMBqg5nJWF1i7Y04Vml/
VZb6ZSFc+Mduc3tuGMY7s6BD6QedHYxI7LzUbpxP6yYUjrJJw/OFcQ+r8BxxfVVq
hrGayFwFdqvPG7zUAUzmNqQizVPVNuoNPiKEQj3XAzXHApx9Bmp2VDYZAAAAIOxd
GrY2XYmD/+Z4l7uvjUddodeFVHbpJY19bqgeWgBq/h0HCwMIWvgKXombjZdgrCsw
yLFtTUMbAXJ9azipEC/Gn0mVkeFRO4+lrxskypxQMQw6rcfer7uw6fMhlsvmIXhv
KV1xMIegRHoxhGFg0aqVF3fCmwYYGwoAAAAsIqEGGBfWQqRjuUxcP0IFJZ7tOJOa
yat2LztTwvTQgS5puBMFgmp2VDYCmwwAAAAATH0gOx7w2KoI1Qf/eB/Zc/d8KUmw
vnOykg/wgsvCnAp+S0tEainMJl56UK6ZA6iQdZ59uiG8MdVDuvqYrImhwiYw28oJ
FaOQHCJvYOvx62sfxLOWtHa4LB/rgyN0Arht8HEF
=PLtw
-----END PGP PRIVATE KEY BLOCK-----
